X: 1782
T: HUNGARIAN DANCE
B: Oliver Ditson "The Boston Collection of Instrumental Music" 1910 p.178 #2
F: http://conquest.imslp.info/files/imglnks/usimg/8/8f/IMSLP175643-PMLP309456-bostoncollection00bost_bw.pdf
%: 2012 John Chambers <jc:trillian.mit.edu>
M: 2/4
L: 1/16
K: D
A2 |\
d2df e2eg | f2a2 a4   | f2ed {g}f2ed | e4 A2A2 |\
d2df e2eg | f2a2 a4   | f2ed    e2dc | d4 D2  :|
|: e2 |\
f2fa e2Ag | f2fa e2Ag | f2ed {g}f2ed | e4 A2e2 |\
f2fa e2Ag | f2fa e2Ag | f2ed    e2dc | d4 D2  :|

%%sep 1 1 500
%%sep 1 1 500
